-- Coogan, Leonard : Risel

d1
	$ striate "<10 20>"
	$ s "[padlong*4]/2"
	# legato 1
	# speed "[1, 2] 4"
	# loop 4
	# release 0.4
	# octave "2"

d2
	$ chop "<16 64 16>"
	$ s "[bd ~ hh jungle*4 808bd]*2"
	# pan (sine + 0.1)

d3
	$ s "[hh]*8"
	# gain 0.6
	# pan (sine)
