-- fm'latghor : Glass

d1 $ chop 24 $ n "[0 2 5 7]" # s "midi"

d2 $ n "[c8]*256" # s "midi"

d3 $chop 128 $n "[c1 c2 c3 c4 c5 c6 c7]" #s "midi" # speed "0.2"

d4 $n "[g1([c3 c4]/2,8) ~ g2 ~ g3 g6]" #s "midi" # speed "0.2"
	-- #sus "0.01"

d5 $n "[g1 g3]" #s "midi"

d6 $n "[d2 d3]" #s "midi"
