-- four on the floor
d1 $stack [
	s "[909!4 ~ bd]*2",
	s "{~ clak}%2",
	s "dr55*32 dr55*8 dr55*4"
]

d2 $s "cp:1*1.5 ~~cp:1"

d2 $s "ifdrums:2*2"

d2 $s "ifdrums:2*3 ifdrums:2*2"

d2 $s "ifdrums:2*4" #gain "<1*8 1.3>"

d3 $n "c3 d5 c2 e3 cf4 ef3"
	#s "bass1*4"
	#octave 7

d3 $n "b d a3 c'sus"
	#s "bass1*4"
	#octave 6
